icons/1_Primary/WHMCS.svg

<svg width="1024" height="1024" fill="none" xmlns="http://www.w3.org/2000/svg"><g clip-path="url(#a)"><path d="M512 1024c282.77 0 512-229.23 512-512S794.77 0 512 0 0 229.23 0 512s229.23 512 512 512Z" fill="#98DC9A"/><path d="M128 437.39h27.64l34.68 108.78 35.19-109.29H248l35.32 109.29L318 437.39h26.8L297.57 585.2H271l-34.6-105.45-32.76 105.45h-27.39L128 437.39Zm229.34 146.79h25.08v-61.94h64v61.94h25.08V437.39h-25.09v61h-64v-61h-25.07v146.79Zm131.31 0h25.59v-108.4l46.46 65.27L606 475.4v108.78h27.26V437.39h-30.08l-42.87 61.17-42.75-61.17h-28.92l.01 146.79ZM763.41 463l4.38-13.71c-.6-.05-1.21-.09-1.82-.09a20.005 20.005 0 0 0-14.19 5.88 20.261 20.261 0 0 0-2.45 3 20.087 20.087 0 0 0 0 22.44 20.21 20.21 0 0 0 3.15 3.67 20.002 20.002 0 0 0 24.089 2.383A20.004 20.004 0 0 0 785.31 464l-16.4 4.53a55.858 55.858 0 0 0-5.5-5.53ZM753 532.22a37.996 37.996 0 0 1-30.507 15.357 37.991 37.991 0 0 1-30.515-15.341 38.003 38.003 0 0 1 2.945-48.821 38.006 38.006 0 0 1 14.697-9.595l.23-8.66.09-3.35 3.23-.88 9.56-2.59-7.53-7.23-2.63-2.52 1.92-3.09 5-8.06 1.76-2.84 3.22.86 7 1.86-1.9-7.75-14.57-.25-5 19.2a62.88 62.88 0 0 0-8 2.18l-13.69-14.21-12.8 7 5.37 19.71a67.548 67.548 0 0 0-5.25 5.25l-19.45-5.37-7.68 12.41 14.72 14.33a48.448 48.448 0 0 0-1.92 7.42l-19.07 5.37-.38 14.59 19.58 5.25a53.906 53.906 0 0 0 2.18 7.81l-15 12.93 6.91 12.8 20.22-5.5a45.747 45.747 0 0 0 5 5L676 575.73l12.41 7 14.72-14.33a58.508 58.508 0 0 0 6.78 1.79l4.74 19.84h14.59l4.86-19.84a77.796 77.796 0 0 0 7.81-2l13.44 14.46 12.93-7.17-5.37-19.2a59.91 59.91 0 0 0 5.76-5.63l18.81 5.63 7.42-12.54-11.77-11.52H753Zm66.45-83.14-2.64 2.39-7.36 6.66.18.66 10.37 2.65 3.38.87v6.32c3.64-5.1 11.57-9.62 27.5-9.62a55.424 55.424 0 0 1 35.58 12.54v-26.48s-20.6-9.85-39.29-9.85c-9 0-21.34 1-31.66 6.56l2.32 4.19 1.62 3.11Zm32.22 47.82c-23.63-6.28-29.84-10.83-30.91-17.45l-1 .22-10 2.18 6.44 6.35 2.51 2.47-1.8 3-4.86 8.19-1.8 3-3.38-1-3.6-1.1c18.72 22.39 65.44 14.47 65.44 41.07 0 13.44-12.8 17.92-31.1 17.66-20.22-.26-42-14.85-42-14.85v27.56a108.125 108.125 0 0 0 47.1 12.16c25 0 53.24-12.29 53.24-41.34 0-29.05-17.74-41.08-44.23-48.12h-.05Zm-128.31-57.08 9.39 2.49 3.15.84a40.873 40.873 0 0 1 3.33-3.33L735.9 427l8.32-4.48 9 9.21a35.27 35.27 0 0 1 5.25-1.41l3.33-12.42 9.47.26 2.94 12.29c1.66.38 3.33.77 5 1.28l9.6-8.83 8.19 4.86-3.84 12a47.235 47.235 0 0 1 3.58 3.58l12.54-3.58 2.38 4.3 2.23 4-9.47 8.57a48.177 48.177 0 0 1 1.54 5.76l12.92 3.33v9.47l-13.63 3a26.393 26.393 0 0 1-1.21 4.15l9.09 9-4.86 8.19-8.78-2.68-3.38-1a50.725 50.725 0 0 1-3.71 3.71l3.26 12.44-8.19 4.74-8.7-9.34c-1.66.51-3.33 1-5.12 1.41l-3.2 12.93H761l-3-12.94a28.703 28.703 0 0 1-4.48-1.15l-9.43 9.35-8.09-4.49 3.07-13.05a40.873 40.873 0 0 1-3.33-3.33l-13.05 3.58-4.22-8.06 9.73-8.45a33.569 33.569 0 0 1-1.41-5.12l-12.67-3.33.06-2.26.19-7.21 12.31-3.28a34.043 34.043 0 0 1 1.32-4.9l-9.6-9.21 4.96-8.07Zm45.83 5.08a24.942 24.942 0 0 0-3.22-.22 24.486 24.486 0 0 0-17.37 7.19 24.571 24.571 0 0 0-7.202 17.375 24.56 24.56 0 0 0 8.052 18.185 24.57 24.57 0 0 0 40.96-20.71 24.581 24.581 0 0 0-21.22-21.82Z" fill="#fff"/></g><defs><clipPath id="a"><path fill="#fff" d="M0 0h1024v1024H0z"/></clipPath></defs></svg>

<svg width="1024" height="1024" viewBox="0 0 1024 1024" fill="none" xmlns="http://www.w3.org/2000/svg">
<g clip-path="url(#clip0_2_3930)">
<path d="M512 1024C794.77 1024 1024 794.77 1024 512C1024 229.23 794.77 0 512 0C229.23 0 0 229.23 0 512C0 794.77 229.23 1024 512 1024Z" fill="#98DC9A"/>
<path d="M128 437.39H155.64L190.32 546.17L225.51 436.88H248L283.32 546.17L318 437.39H344.8L297.57 585.2H271L236.4 479.75L203.64 585.2H176.25L128 437.39ZM357.34 584.18H382.42V522.24H446.42V584.18H471.5V437.39H446.41V498.39H382.41V437.39H357.34V584.18ZM488.65 584.18H514.24V475.78L560.7 541.05L606 475.4V584.18H633.26V437.39H603.18L560.31 498.56L517.56 437.39H488.64L488.65 584.18ZM763.41 463L767.79 449.29C767.19 449.24 766.58 449.2 765.97 449.2C760.981 449.194 756.169 451.052 752.48 454.41C752.24 454.624 752.007 454.847 751.78 455.08C750.869 456 750.049 457.004 749.33 458.08C747.097 461.396 745.905 465.303 745.905 469.3C745.905 473.298 747.097 477.204 749.33 480.52C750.049 481.596 750.869 482.601 751.78 483.52C752.007 483.747 752.24 483.97 752.48 484.19C755.683 487.166 759.773 489.009 764.123 489.44C768.473 489.87 772.845 488.863 776.569 486.573C780.292 484.283 783.163 480.836 784.742 476.759C786.321 472.683 786.52 468.201 785.31 464L768.91 468.53C767.208 466.561 765.37 464.713 763.41 463ZM753 532.22C749.466 536.983 744.866 540.853 739.569 543.519C734.272 546.186 728.424 547.576 722.493 547.577C716.562 547.579 710.714 546.192 705.415 543.528C700.116 540.864 695.515 536.997 691.978 532.236C688.442 527.476 686.069 521.953 685.049 516.111C684.029 510.268 684.391 504.268 686.106 498.591C687.82 492.914 690.84 487.716 694.923 483.415C699.006 479.114 704.039 475.828 709.62 473.82L709.85 465.16L709.94 461.81L713.17 460.93L722.73 458.34L715.2 451.11L712.57 448.59L714.49 445.5L719.49 437.44L721.25 434.6L724.47 435.46L731.47 437.32L729.57 429.57L715 429.32L710 448.52C707.288 449.07 704.616 449.798 702 450.7L688.31 436.49L675.51 443.49L680.88 463.2C679.035 464.853 677.282 466.605 675.63 468.45L656.18 463.08L648.5 475.49L663.22 489.82C662.385 492.239 661.743 494.72 661.3 497.24L642.23 502.61L641.85 517.2L661.43 522.45C661.96 525.105 662.688 527.715 663.61 530.26L648.61 543.19L655.52 555.99L675.74 550.49C677.275 552.283 678.947 553.955 680.74 555.49L676 575.73L688.41 582.73L703.13 568.4C705.352 569.132 707.616 569.729 709.91 570.19L714.65 590.03H729.24L734.1 570.19C736.736 569.659 739.343 568.991 741.91 568.19L755.35 582.65L768.28 575.48L762.91 556.28C764.954 554.535 766.878 552.654 768.67 550.65L787.48 556.28L794.9 543.74L783.13 532.22H753ZM819.45 449.08L816.81 451.47L809.45 458.13L809.63 458.79L820 461.44L823.38 462.31V468.63C827.02 463.53 834.95 459.01 850.88 459.01C863.842 458.901 876.431 463.338 886.46 471.55V445.07C886.46 445.07 865.86 435.22 847.17 435.22C838.17 435.22 825.83 436.22 815.51 441.78L817.83 445.97L819.45 449.08ZM851.67 496.9C828.04 490.62 821.83 486.07 820.76 479.45L819.76 479.67L809.76 481.85L816.2 488.2L818.71 490.67L816.91 493.67L812.05 501.86L810.25 504.86L806.87 503.86L803.27 502.76C821.99 525.15 868.71 517.23 868.71 543.83C868.71 557.27 855.91 561.75 837.61 561.49C817.39 561.23 795.61 546.64 795.61 546.64V574.2C810.183 581.778 826.29 585.937 842.71 586.36C867.71 586.36 895.95 574.07 895.95 545.02C895.95 515.97 878.21 503.94 851.72 496.9H851.67ZM723.36 439.82L732.75 442.31L735.9 443.15C736.945 441.977 738.057 440.865 739.23 439.82L735.9 427L744.22 422.52L753.22 431.73C754.931 431.126 756.686 430.654 758.47 430.32L761.8 417.9L771.27 418.16L774.21 430.45C775.87 430.83 777.54 431.22 779.21 431.73L788.81 422.9L797 427.76L793.16 439.76C794.417 440.889 795.612 442.084 796.74 443.34L809.28 439.76L811.66 444.06L813.89 448.06L804.42 456.63C805.052 458.517 805.566 460.44 805.96 462.39L818.88 465.72V475.19L805.25 478.19C804.961 479.604 804.556 480.992 804.04 482.34L813.13 491.34L808.27 499.53L799.49 496.85L796.11 495.85C794.938 497.15 793.7 498.388 792.4 499.56L795.66 512L787.47 516.74L778.77 507.4C777.11 507.91 775.44 508.4 773.65 508.81L770.45 521.74H761L758 508.8C756.478 508.538 754.98 508.153 753.52 507.65L744.09 517L736 512.51L739.07 499.46C737.897 498.415 736.785 497.303 735.74 496.13L722.69 499.71L718.47 491.65L728.2 483.2C727.596 481.534 727.124 479.822 726.79 478.08L714.12 474.75L714.18 472.49L714.37 465.28L726.68 462C726.997 460.336 727.439 458.699 728 457.1L718.4 447.89L723.36 439.82ZM769.19 444.9C768.123 444.757 767.047 444.684 765.97 444.68C759.86 444.671 753.968 446.947 749.45 451.06C749.157 451.327 748.873 451.597 748.6 451.87C746.317 454.151 744.506 456.86 743.27 459.841C742.034 462.822 741.398 466.018 741.398 469.245C741.398 472.473 742.034 475.668 743.27 478.65C744.506 481.631 746.317 484.339 748.6 486.62C748.88 486.9 749.163 487.17 749.45 487.43C752.973 490.63 757.349 492.738 762.048 493.498C766.746 494.258 771.564 493.637 775.916 491.71C780.268 489.784 783.967 486.635 786.563 482.646C789.159 478.657 790.541 474 790.54 469.24C790.539 468.399 790.496 467.558 790.41 466.72C789.838 461.229 787.433 456.089 783.584 452.131C779.734 448.172 774.664 445.625 769.19 444.9Z" fill="white"/>
</g>
<defs>
<clipPath id="clip0_2_3930">
<rect width="1024" height="1024" fill="white"/>
</clipPath>
</defs>
</svg>
